X:1
T:Se mille facelle
T:Se mille facelle
T:Giovanni Felice Sances
T:Source : Cantate et arie a voce sola---Libro IV---Venetia---A.Vincenti---1636. Editor : André Vierendeels (05/04/15).
C:Giovanni Felice Sances
%%score 1 { ( 2 4 ) | 3 }
L:1/8
Q:1/4=110
M:3/4
K:C
V:1 treble nm="Canto" snm="C"
V:2 treble nm="BC" snm="BC"
V:4 treble 
V:3 bass 
V:1
 z2 z2 z G | E2 ^F3 F | G2 A3 A | B2 ^c3 c | d2 d3 d | e2 e3 e | f2 f3 e | d2 d3 A | B2 B2 z2 :: %9
w: Se|mil- le fa-|cel- le sop-|por- to nel|co- re al|vo- stro splen-|do- re sa-|re- te ru-|bel- le?|
w: Se|mor- te cru-|de- le con|fal- ce m'a-|ter- ra fa-|re- te'an- cor|guer- ra, a|l'al- ma fe-|de- le?|
w: Io|mor- to mi|sen- to voi|mor- to mi'ha-|ve- te voi|piu non go-|de- te il|fo- co'e gia|spen- to?|
 z2 z2 z e | c2 A3 c | B2 G3 B | A2 A3 G | G2 G3 g | f2 d3 f | e2 c3 e | d2 d3 c | c2 c3 e | %18
w: E|vo- stro quel|fo- co ch'io|pro- vo te-|na- ce, e|vo- stro quel|fo- co ch'io|pro- vo te-|na- ce, pian-|
w: Bei|stra- li pun-|gen- ti pie-|ta- de vi|mo- va, bei-|stra- li pun-|gen- ti pie-|ta- de vi|mo- va u-|
w: Sa-|re- te si|fie- ri che|con- tro'un es-|tin- to, sa-|re- te si|fie- ri che|con- tro'un es-|tin- to mo-|
[M:4/4] ef/e/ d3 e/d/ c2- | c2 BB B3 A | B2 B2 BAAG | G Bcd e2 ^FF | ^F4 E2 e2 | eddc c cde | %24
w: gen- * * * * * *|* do'hor v'in- vo- co,|_ O lu- ci va- ghe|fi ma _ _ _ dis- pie-|ta- te, O|lu- ci va- ghe fi ma _ _|
w: di- * * * * * *|* te la- men- ti,|_ che for- mo'il cor fra|l'al- tre _ _ _ sue sven-|tu- re, che|for- mo'il cor fra l'al- tre _ _|
w: ven- * * * * * *|* do- vi'ar- cie- ri,|_ mor- to fra sas- si|mi fa- * * * re- te|guer- ra, mor-|to fra sas- si mi fa- * *|
 f2 BB B4 |[M:3/4] A6 | z2 de cd | B2 AB cB | A2 A3 G | G4 z2 | z2 GA FG | E2 EF GA | F2 D3 G | %33
w: _ dis- pie- ta-|te,|nul- * * *|* la _ _ _|val la bel-|ta,|nul- * * *|* la _ _ _|val la bel-|
w: _ sue sven- tu-|re,|fiam- * * *|* me _ _ _|di cru- del-|ta,|fiam- * * *|* me _ _ _|di cru- del-|
w: * re- te guer-|ra,|da _ _ _|_ voi _ _ _|non son se-|cur,|da _ _ _|_ voi _ _ _|non son se-|
 E4 ^F2 | ^G2 A4 | A4 ^G2 | A4 B2 | ^c2 d4 | d4 ^c2 | d4 z2 | z2 de cd | B2 Bc de | c2 A3 d | %43
w: ta sen-|za pie-|ta- de,|_ sen-|za pie-|ta- de,|_|nul- * * *|* la _ _ _|val la bel-|
w: ta son|sem- pre'os-|cu- re,|_ son|sem- pre'os-|cu- re,|_|fiam- * * *|* me _ _ _|di cru- del-|
w: cur an-|cor so-|te- ra,|_ an-|cor so-|te- ra,|_|da _ _ _|_ voi _ _ _|non son se-|
 B4 z2 | z2 GA FG | E2 cd Bc | A2 B2 c2 | c2 B2 c2 | c6 :| %49
w: ta|sen- * * *||* * za|pie- ta- *|de.|
w: ta|son _ _ _|_ _ _ _ _|* * sem-|pre'os- cu- *|re.|
w: cur|an- * * *||* * cor|so- te- *|ra.|
V:2
 [EG]6- | [EG]2 [DA]4 | [DB]2 [Ad]4 | [DB]2 [A^c]4 | [FA]6 | [EA]6 | [Fd]4 [Gc-]2 | [Ac]4 [FA]2 | %8
 [^EG]4 [GB]2 :: [^GB]6 | [Ec]6 | [DG]4 [GB]2 | [Ec]2 [^FA]4 | [DB]6 | [Fd]4 [Gd]2 | [Ec]4 [CG]2 | %16
 A2 B4 | [EG]6 |[M:4/4] [EB]4 [Ec]4 | [GB]4 [Fd]4 | [^GB]4 [^FB]4 | [GB]4 [Ec]4 | [^DB]4 [B,^G]4 | %23
 [EB]4 [Ec]4 | [DA]4 [^GB]4 |[M:3/4] [E^c]6 | [Ad]6 | [Bd]6 | z6 | [DB]6 | [Gc]6 | G4 F2- | %32
 F2 G2 B2 | [Gc]4 [DA]2 | [B,^G]2 [FA]4 | [EB]6 | [Ec]4 [EB]2 | [E^c]2 [Ad]2 [GB]2 | d2 e4 | %39
 [^Fd]6 | [Gd]4 [Ec]2 | [GB]4 [EG]2 | [Gc]2 [^FA]4 | [DG]6 | [Gc]6 | [EG]4 [DG]2 | [CA]6 | [DG]6 | %48
 [EG]6 :| %49
V:3
 C,4 C2 | C2 A,4 | G,2 ^F,4 | G,2 E,4 | D,4 D,2 | ^C,4 C,2 | D,4 E,2 | F,4 F,2 | E,4 E,2 :: %9
 E,4 E,2 | A,,4 A,,2 | B,,4 B,,2 | C,2 D,4 | G,,4 G,2 | A,4 B,2 | C4 E,2 | F,4 G,2 | C,4 C2 | %18
[M:4/4] ^G,4 A,4 | E,4 F,4 | E,4 ^D,4 |"^b" E,4 A,,4 | B,,4 E,4 | ^G,4 A,4 | D,4 E,4 | %25
[M:3/4] A,,2 A,B, G,A, | ^F,4 F,2 | G,4 B,,2 | C,2 D,4 | G,,2 G,A, F,G, | E,4 D,2 | C,2 E,,2 F,,2 | %32
 G,,4 G,,2 | C,4 D,2 | E,2 D,4 | E,6 | A,4 ^G,2 | A,2 ^F,2 G,2 | A,4 A,,2 | D,2 DE CD | B,4 A,2 | %41
 G,2 B,,2 C,2 | D,4 D,2 | G,,2 G,A, F,G, | E,4 D,2 | C,4 B,,2 | F,,4 F,,2 | G,,6 | C,6 :| %49
V:4
 x6 | x6 | x6 | x6 | x6 | x6 | x6 | x6 | x6 :: x6 | x6 | x6 | x6 | x6 | x6 | x6 | D6 | x6 | %18
[M:4/4] x8 | x8 | x8 | x8 | x8 | x8 | x8 |[M:3/4] x6 | x6 | x6 | x6 | x6 | x6 | C2 B,2 C2 | D4 D2 | %33
 x6 | x6 | x6 | x6 | x6 | A6 | x6 | x6 | x6 | x6 | x6 | x6 | x6 | x6 | x6 | x6 :| %49

